!! J.S. Bach "Gigue" from Suite No. 4, for violoncello.
!! From 'Bach Sonatas', Augener's Edition, 1919; p.29
!! This file has been error-checked using the double-entry method.
!! NOTE: The repeats at bars 10 and at the end have been expanded in
!!       this encoding.
!! Percy Such (editor) gives the metronome marking as dotted quarter-note
!! equals 144 (i.e. quarter-note equals 216).
**kern
*M12/8
8E-
=1
{8E-
8D
8E-}
{8BB-
8C
8D}
{8E-
8D
8E-}
{8G
8F
8G}
=2
{8E-
8D
8E-}
{8BB-
8C
8D}
[4.EE-
4EE-]
8G
=3
{8F
8E-
8F}
{8B-
8G
8A-}
{8G
8F
8G}
{8E-
8F
8G}
=4
{8F
8E-
8F}
{8B-
8G
8A-}
{8G
8F
8G}
{8E-
8G
8F}
=5
{8E-
8D
8E-}
{8c
8An
8B-}
{8A
8G
8A}
{8F
8A
8F}
=6
{8E-
8D
8E-}
{8c
8An
8B-}
{8A
8G
8A}
{8F
8A
8E-}
=7
{8D
8C
8D}
{8d
8An
8B-}
{8E-
8D
8E-}
{8d
8A
8B-}
=8
{8F
8E-
8F}
{8d
8An
8B-}
{8G
8F
8G}
{8d
8A
8B-}
=9
{8E-
8D
8E-}
{8C
8E-
8BB-}
{8AAn
8E-
8GG}
{8AA
8E-
8FF}
=10
{8BB-
8D
8F}
{8B-
8D
8F}
[4.BB-
4BB-]
8E-
=11
{8E-
8D
8E-}
{8BB-
8C
8D}
{8E-
8D
8E-}
{8G
8F
8G}
=12
{8E-
8D
8E-}
{8BB-
8C
8D}
[4.EE-
4EE-]
8G
=13
{8F
8E-
8F}
{8B-
8G
8A-}
{8G
8F
8G}
{8E-
8F
8G}
=14
{8F
8E-
8F}
{8B-
8G
8A-}
{8G
8F
8G}
{8E-
8G
8F}
=15
{8E-
8D
8E-}
{8c
8An
8B-}
{8A
8G
8A}
{8F
8A
8F}
=16
{8E-
8D
8E-}
{8c
8An
8B-}
{8A
8G
8A}
{8F
8A
8E-}
=17
{8D
8C
8D}
{8d
8An
8B-}
{8E-
8D
8E-}
{8d
8A
8B-}
=18
{8F
8E-
8F}
{8d
8An
8B-}
{8G
8F
8G}
{8d
8A
8B-}
=19
{8E-
8D
8E-}
{8C
8E-
8BB-}
{8AAn
8E-
8GG}
{8AA
8E-
8FF}
=20
{8BB-
8D
8F}
{8B-
8D
8F}
[4.BB-
4BB-]
8B-
=21
{8B-
8An
8B-}
{8F
8G
8A}
{8B-
8A
8B-}
{8d
8c
8d}
=22
{8B-
8An
8B-}
{8F
8G
8A}
[4.BB-
4BB-]
8d
=23
{8d
8c
8d}
{8A-
8G
8A-}
{8F
8E-
8F}
{8BBn
8F
8d}
=24
{8d
8c
8d}
{8A-
8G
8A-}
{8F
8E-
8F}
{8BBn
8D
8F}
=25
{8E-
8D
8E-}
{8C
8E-
8BB-}
{8AA-
8C
8F}
{8A-
8c
8E-}
=26
{8D
8C
8D}
{8BB-
8D
8AA-}
{8GG
8BB-
8E-}
{8G
8B-
8D}
=27
{8C
8BB-
8C}
{8AA-
8C
8GG}
{8FF
8AA-
8D}
{8F
8A-
8C}
=28
{8BBn
8D
8G}
{8Bn
8d
8F}
{8E-
8G
8c}
{8G
8c
8B}
=29
{8c
8Bn
8c}
{8G
8An
8B}
{8c
8B
8c}
{8e-
8d
8e-}
=30
{8c
8Bn
8c}
{8E-
8F
8G}
{8C
8E-
8F#}
{8An
8c
8A}
=31
{8F#
8An
8c}
{8e-
8d
8c}
{8B-
8A
8G}
{8D
8G
8F#}
=32
{8G
8F#
8G}
{8B-
8F#
8G}
{8C
8BB-
8C}
{8B-
8F#
8G}
=33
{8D
8C
8D}
{8B-
8F#
8G}
{8E-
8D
8E-}
{8B-
8F#
8G}
=34
{8An
8c
8G}
{8F#
8c
8En}
{8D
8c
8E}
{8F#
8c
8G}
=35
{8An
8c
8G}
{8F#
8c
8En}
{8D
8c
8E}
{8F#
8c
8D}
=36
{8B-
8An
8G}
{8D
8G
8F#}
{8G
8D}
8BB-'
4GG
8E-
=37
{8E-
8D
8E-}
{8BB-
8C
8D}
{8E-
8D
8E-}
{8G
8F
8G}
=38
{8E-
8D
8E-}
{8BB-
8C
8D}
[4.EE-
4EE-]
8G
=39
{8F
8E-
8F}
{8B-
8G
8A-}
{8G
8F
8G}
{8E-
8F
8G}
=40
{8F
8E-
8F}
{8B-
8G
8A-}
{8G
8F
8G}
{8E-
8G
8A-}
=41
{8B-
8A-
8B-}
{8e-
8c
8d-}
{8c
8B-
8c}
{8A-
8B-
8c}
=42
{8B-
8A-
8B-}
{8e-
8c
8d-}
{8c
8B-
8c}
{8A-
8B-
8c}
=43
{8G-
8F
8G-}
{8E-
8D
8E-}
{8C
8BB-
8C}
{8AAn
8C
8E-}
=44
{8G-
8F
8G-}
{8E-
8D
8E-}
{8C
8BB-
8C}
{8AAn
8C
8E-}
=45
{8D
8C
8D}
{8BB-
8D
8AA-}
{8GG
8BB-
8E-}
{8G
8B-
8D-}
=46
{8C
8BB-
8C}
{8AA-
8C
8GG}
{8FF
8AA-
8D}
{8F
8A-
8C}
=47
{8BB-
8AA-
8BB-}
{8GG
8BB-
8FF}
{8EEn
8GG
8C}
{8En
8G
8BB-}
=48
{8AA-
8GG
8AA-}
{8FF
8AA-
8EE-}
{8DD
8FF
8BB-}
{8D
8F
8AA-}
=49
{8GG
8FF
8GG}
{8G
8D
8E-}
{8AA-
8GG
8AA-}
{8G
8D
8E-}
=50
{8BB-
8AA-
8BB-}
{8G
8D
8E-}
{8C
8BB-
8C}
{8G
8D
8E-}
=51
{8A-
8G
8A-}
{8F
8A-
8E-}
{8D
8A-
8C}
{8D
8A-
8BB-}
=52
{8E-
8G
8B-
8e-}
{8GG
8BB-}
[4.EE-
4EE-]
8B-
=53
{8B-
8An
8B-}
{8F
8G
8A}
{8B-
8A
8B-}
{8d
8c
8d}
=54
{8B-
8An
8B-}
{8F
8G
8A}
[4.BB-
4BB-]
8d
=55
{8d
8c
8d}
{8A-
8G
8A-}
{8F
8E-
8F}
{8BBn
8F
8d}
=56
{8d
8c
8d}
{8A-
8G
8A-}
{8F
8E-
8F}
{8BBn
8D
8F}
=57
{8E-
8D
8E-}
{8C
8E-
8BB-}
{8AA-
8C
8F}
{8A-
8c
8E-}
=58
{8D
8C
8D}
{8BB-
8D
8AA-}
{8GG
8BB-
8E-}
{8G
8B-
8D}
=59
{8C
8BB-
8C}
{8AA-
8C
8GG}
{8FF
8AA-
8D}
{8F
8A-
8C}
=60
{8BBn
8D
8G}
{8Bn
8d
8F}
{8E-
8G
8c}
{8G
8c
8B}
=61
{8c
8Bn
8c}
{8G
8An
8B}
{8c
8B
8c}
{8e-
8d
8e-}
=62
{8c
8Bn
8c}
{8E-
8F
8G}
{8C
8E-
8F#}
{8An
8c
8A}
=63
{8F#
8An
8c}
{8e-
8d
8c}
{8B-
8A
8G}
{8D
8G
8F#}
=64
{8G
8F#
8G}
{8B-
8F#
8G}
{8C
8BB-
8C}
{8B-
8F#
8G}
=65
{8D
8C
8D}
{8B-
8F#
8G}
{8E-
8D
8E-}
{8B-
8F#
8G}
=66
{8An
8c
8G}
{8F#
8c
8En}
{8D
8c
8E}
{8F#
8c
8G}
=67
{8An
8c
8G}
{8F#
8c
8En}
{8D
8c
8E}
{8F#
8c
8D}
=68
{8B-
8An
8G}
{8D
8G
8F#}
{8G
8D}
8BB-'
4GG
8E-
=69
{8E-
8D
8E-}
{8BB-
8C
8D}
{8E-
8D
8E-}
{8G
8F
8G}
=70
{8E-
8D
8E-}
{8BB-
8C
8D}
[4.EE-
4EE-]
8G
=71
{8F
8E-
8F}
{8B-
8G
8A-}
{8G
8F
8G}
{8E-
8F
8G}
=72
{8F
8E-
8F}
{8B-
8G
8A-}
{8G
8F
8G}
{8E-
8G
8A-}
=73
{8B-
8A-
8B-}
{8e-
8c
8d-}
{8c
8B-
8c}
{8A-
8B-
8c}
=74
{8B-
8A-
8B-}
{8e-
8c
8d-}
{8c
8B-
8c}
{8A-
8B-
8c}
=75
{8G-
8F
8G-}
{8E-
8D
8E-}
{8C
8BB-
8C}
{8AAn
8C
8E-}
=76
{8G-
8F
8G-}
{8E-
8D
8E-}
{8C
8BB-
8C}
{8AAn
8C
8E-}
=77
{8D
8C
8D}
{8BB-
8D
8AA-}
{8GG
8BB-
8E-}
{8G
8B-
8D-}
=78
{8C
8BB-
8C}
{8AA-
8C
8GG}
{8FF
8AA-
8D}
{8F
8A-
8C}
=79
{8BB-
8AA-
8BB-}
{8GG
8BB-
8FF}
{8EEn
8GG
8C}
{8En
8G
8BB-}
=80
{8AA-
8GG
8AA-}
{8FF
8AA-
8EE-}
{8DD
8FF
8BB-}
{8D
8F
8AA-}
=81
{8GG
8FF
8GG}
{8G
8D
8E-}
{8AA-
8GG
8AA-}
{8G
8D
8E-}
=82
{8BB-
8AA-
8BB-}
{8G
8D
8E-}
{8C
8BB-
8C}
{8G
8D
8E-}
=83
{8A-
8G
8A-}
{8F
8A-
8E-}
{8D
8A-
8C}
{8D
8A-
8BB-}
=84
{8E-
8G
8B-
8e-}
{8GG
8BB-}
[4.EE-
4EE-]
==
*-
